icons/arrow-break-right.svg

<svg width="24" height="24" viewBox="0 0 24 24" fill="none" xmlns="http://www.w3.org/2000/svg">
<path fill-rule="evenodd" clip-rule="evenodd" d="M4.30005 12C4.30005 11.5858 4.63584 11.25 5.05005 11.25L18.95 11.25C19.3643 11.25 19.7 11.5858 19.7 12C19.7 12.4142 19.3643 12.75 18.95 12.75L5.05005 12.75C4.63584 12.75 4.30005 12.4142 4.30005 12Z" fill="black"/>
<path fill-rule="evenodd" clip-rule="evenodd" d="M13.1251 18.2356C12.8292 17.9457 12.8244 17.4708 13.1144 17.175L18.0197 12.1696C18.0835 12.1058 18.1 12.0448 18.1 12C18.1 11.9551 18.0835 11.8941 18.0197 11.8303L13.1197 6.93028C12.8268 6.63739 12.8268 6.16252 13.1197 5.86962C13.4126 5.57673 13.8875 5.57673 14.1804 5.86962L19.0804 10.7696C19.7722 11.4615 19.7732 12.5343 19.0834 13.2272L14.1857 18.2249C13.8958 18.5207 13.4209 18.5255 13.1251 18.2356Z" fill="black"/>
<path fill-rule="evenodd" clip-rule="evenodd" d="M5.05005 18.75C4.63584 18.75 4.30005 18.4142 4.30005 18L4.30005 6C4.30005 5.58579 4.63584 5.25 5.05005 5.25C5.46426 5.25 5.80005 5.58579 5.80005 6L5.80005 18C5.80005 18.4142 5.46426 18.75 5.05005 18.75Z" fill="black"/>
</svg>

<svg xmlns="http://www.w3.org/2000/svg" fill="none" viewBox="0 0 24 24">
  <path fill="#000" fill-rule="evenodd" d="M4.3 12a.75.75 0 0 1 .75-.75h13.9a.75.75 0 1 1 0 1.5H5.05A.75.75 0 0 1 4.3 12Z" clip-rule="evenodd"/>
  <path fill="#000" fill-rule="evenodd" d="M13.125 18.236a.75.75 0 0 1-.01-1.061l4.905-5.005a.24.24 0 0 0 .08-.17.24.24 0 0 0-.08-.17l-4.9-4.9a.75.75 0 1 1 1.06-1.06l4.9 4.9c.692.691.693 1.764.003 2.457l-4.897 4.998a.75.75 0 0 1-1.06.01Zm-8.075.514A.75.75 0 0 1 4.3 18V6a.75.75 0 0 1 1.5 0v12a.75.75 0 0 1-.75.75Z" clip-rule="evenodd"/>
</svg>
